task1.1/build/res/icons/blog-icon.svg

<svg width="32" height="32" viewBox="0 0 32 32" fill="none" xmlns="http://www.w3.org/2000/svg">
<path d="M27.5837 18.968V7.24018V7.23946V0.723982C27.5837 0.324199 27.2595 0 26.8598 0H8.03623C6.04021 0 4.41632 1.62389 4.41632 3.61991V28.3801C4.41632 30.3761 6.04021 32 8.03623 32H26.8598C27.2595 32 27.5837 31.6758 27.5837 31.276C27.5837 30.8762 27.2595 30.552 26.8598 30.552H26.4516V26.2081H26.8598C27.2595 26.2081 27.5837 25.8839 27.5837 25.4842V18.9687V18.968ZM26.1358 24.7602H22.0918L26.1358 20.7162V24.7602ZM26.1358 5.49191L22.0918 1.44796H26.1358V5.49191ZM5.86428 3.61991C5.86428 2.4223 6.83862 1.44796 8.03623 1.44796V18.6707C8.03623 19.0705 8.36043 19.3947 8.76021 19.3947C9.15999 19.3947 9.48419 19.0705 9.48419 18.6707V1.44796H20.044L26.1358 7.53976V18.6685L20.044 24.7602H9.48419V21.1403C9.48419 20.7405 9.15999 20.4163 8.76021 20.4163C8.36043 20.4163 8.03623 20.7405 8.03623 21.1403V24.7602C7.22204 24.7602 6.46968 25.0304 5.86428 25.4858V3.61991ZM25.0036 30.552H8.03623C6.83862 30.552 5.86428 29.5777 5.86428 28.3801C5.86428 27.1825 6.83862 26.2081 8.03623 26.2081H25.0036V30.552Z" fill="black"/>
</svg>

<svg width="32" height="32" fill="none" xmlns="http://www.w3.org/2000/svg"><path d="M27.584 18.968V.724c0-.4-.325-.724-.724-.724H8.036a3.624 3.624 0 00-3.62 3.62v24.76A3.624 3.624 0 008.036 32H26.86a.724.724 0 000-1.448h-.408v-4.344h.408c.4 0 .724-.324.724-.724v-6.516zm-1.448 5.792h-4.044l4.044-4.044v4.044zm0-19.268l-4.044-4.044h4.044v4.044zM5.864 3.62c0-1.198.975-2.172 2.172-2.172v17.223a.724.724 0 001.448 0V1.448h10.56l6.092 6.092v11.129l-6.092 6.091H9.484v-3.62a.724.724 0 00-1.448 0v3.62a3.6 3.6 0 00-2.172.726V3.62zm19.14 26.932H8.036a2.174 2.174 0 01-2.172-2.172c0-1.197.975-2.172 2.172-2.172h16.968v4.344z" fill="#000"/></svg>
